symbols/web/umbrella/materialsymbolsrounded/umbrella_wght700grad200_24px.svg

<svg xmlns="http://www.w3.org/2000/svg" height="24" width="24"><path d="M12 24.575q-.875 0-1.525-.45-.65-.45-.95-1.275L3.975 6.4q-.175-.5.188-.875.362-.375.887-.225l3.575 1.125 1.675-1V2.65q0-1.55 1.012-2.55 1.013-1 2.563-1 1.45 0 2.3.675.85.675 1.05 1.75.175 1.025-.362 1.662-.538.638-1.438.638-.575 0-.925-.288-.35-.287-.425-.837-.025-.125-.075-.175-.05-.05-.125-.05t-.125.05q-.05.05-.05.125v2.775l1.675 1L18.95 5.3q.525-.15.888.225.362.375.187.875l-5.55 16.45q-.3.85-.95 1.287-.65.438-1.525.438Zm1.7-10.125 1.625-4.8-.7.075-.925-.375Zm-3.4.025v-5.1l-.925.375-.675-.075Z"/></svg>

<svg xmlns="http://www.w3.org/2000/svg" height="24" width="24"><path d="M12 24.575Q11.125 24.575 10.475 24.125Q9.825 23.675 9.525 22.85L3.975 6.4Q3.8 5.9 4.163 5.525Q4.525 5.15 5.05 5.3L8.625 6.425L10.3 5.425V2.65Q10.3 1.1 11.312 0.1Q12.325 -0.9 13.875 -0.9Q15.325 -0.9 16.175 -0.225Q17.025 0.45 17.225 1.525Q17.4 2.55 16.863 3.187Q16.325 3.825 15.425 3.825Q14.85 3.825 14.5 3.537Q14.15 3.25 14.075 2.7Q14.05 2.575 14 2.525Q13.95 2.475 13.875 2.475Q13.8 2.475 13.75 2.525Q13.7 2.575 13.7 2.65V5.425L15.375 6.425L18.95 5.3Q19.475 5.15 19.838 5.525Q20.2 5.9 20.025 6.4L14.475 22.85Q14.175 23.7 13.525 24.137Q12.875 24.575 12 24.575ZM13.7 14.45 15.325 9.65 14.625 9.725 13.7 9.35ZM10.3 14.475V9.375L9.375 9.75L8.7 9.675Z"/></svg>
